!!! OTL: Literature152
!!! Chapter: 5
!!! Section: IV
!!! Page: 381
!!! Mode: 
!!! Encoder: AR
**kern
*staff1
=1-
!!pagebreak:original
*clefG2
*k[b-e-]
*g:
*met(c)
*M4/4
4b-\
q0.332031a/L
q0.332031a-/
q0.335938g/J
4..g/
16f#/
=2
8fn/
16r
16en/
8e-/
16r
16An/
4d/
4d-/
=3
4..c/
16c-/
8B-/
16r
16Bn/
8cn/
16r
16g/
=4
8en/
16r
16f/
8f#/
16r
16cc#\
4ccn\
4cc-\
=5
!!linebreak:original
4b-\
q0.332031a/L
q0.332031a-/
q0.335938g/J
4..g/
16f#/
=6
8fn/
16r
16en/
8e-/
16r
16An/
4..d/
16d-/
=7
8c/
16r
16g/
8en/
16r
16f/
8f#/
16r
16cc\
8bn\
16r
16b-\
=8
4a/
4a-/
4g/
4r
==
*-
